icons/svg/16x16/image/outline.svg

<svg width="16" height="16" fill="none" xmlns="http://www.w3.org/2000/svg">
  <path fill-rule="evenodd" clip-rule="evenodd" d="M5 5.5a1.5 1.5 0 113.001.001A1.5 1.5 0 015 5.5zM8 13c-2.224 0-3.535-.276-4.13-.87a1.738 1.738 0 01-.25-.336L5 10.414l1.293 1.293a.999.999 0 001.414 0l2.387-2.387 2.543 1.907c-.133.392-.299.695-.507.903-.595.594-1.906.87-4.13.87zM3 8c0-2.224.276-3.535.87-4.13C4.465 3.276 5.776 3 8 3s3.535.276 4.13.87c.594.595.87 1.906.87 4.13 0 .353-.01.675-.023.982L10.6 7.2a.996.996 0 00-1.307.093L7 9.586 5.707 8.293a.999.999 0 00-1.414 0L3.056 9.53A18.904 18.904 0 013 8zm10.544-5.544C12.475 1.388 10.725 1 8 1c-2.725 0-4.475.388-5.544 1.456C1.388 3.525 1 5.275 1 8c0 1.31.093 2.39.305 3.281l-.012.012.018.018c.229.95.595 1.683 1.145 2.233C3.525 14.612 5.275 15 8 15c2.725 0 4.475-.388 5.544-1.456C14.612 12.475 15 10.725 15 8c0-2.725-.388-4.475-1.456-5.544z" fill="#000"/>
</svg>

<svg xmlns="http://www.w3.org/2000/svg" width="16" height="16" viewBox="0 0 16 16">
  <path fill-rule="evenodd" d="M5,5.5 C5,4.672 5.672,4 6.5,4 C7.328,4 8,4.672 8,5.5 C8,6.328 7.328,7 6.5,7 C5.672,7 5,6.328 5,5.5 M8,13 C5.776,13 4.465,12.724 3.87,12.13 C3.778,12.037 3.696,11.922 3.62,11.794 L5,10.414 L6.293,11.707 C6.684,12.098 7.316,12.098 7.707,11.707 L10.094,9.32 L12.637,11.227 C12.504,11.619 12.338,11.922 12.13,12.13 C11.535,12.724 10.224,13 8,13 M3,8 C3,5.776 3.276,4.465 3.87,3.87 C4.465,3.276 5.776,3 8,3 C10.224,3 11.535,3.276 12.13,3.87 C12.724,4.465 13,5.776 13,8 C13,8.353 12.99,8.675 12.977,8.982 L10.6,7.2 C10.202,6.9 9.644,6.939 9.293,7.293 L7,9.586 L5.707,8.293 C5.316,7.902 4.684,7.902 4.293,8.293 L3.056,9.53 C3.019,9.077 3,8.569 3,8 M13.544,2.456 C12.475,1.388 10.725,1 8,1 C5.275,1 3.525,1.388 2.456,2.456 C1.388,3.525 1,5.275 1,8 C1,9.31 1.093,10.39 1.305,11.281 L1.293,11.293 L1.311,11.311 C1.54,12.261 1.906,12.994 2.456,13.544 C3.525,14.612 5.275,15 8,15 C10.725,15 12.475,14.612 13.544,13.544 C14.612,12.475 15,10.725 15,8 C15,5.275 14.612,3.525 13.544,2.456"/>
</svg>
